X: 22740
T: Lancer's, The
R: jig
M: 6/8
K: Dmajor
|:DFA A^GA|BAG FGF|DFA Adf|gfg efg|
fdB A^GA|BAG FGA|Bcd AFD|A,CE [D3A,3]:|
|:dfa a^ga|bag f2 A|dfa agf|gfg efg|
fdB A^GA|BAG FGA|Bcd AFD|A,CE [D3A,3]:|

